icon-themes/breeze_svg/cmd/sc_connect.svg

<svg viewBox="0 0 16 16" xmlns="http://www.w3.org/2000/svg"><path d="m13 2-11 4 5 8h7l-3-6zm-1.59375 1.625-1.34375 4.0625-.15625.375.1875.375 2.28125 4.5625h-4.8125l-4.0625-6.46875z" fill="#4d4d4d"/></svg>

<svg viewBox="0 0 16 16" xmlns="http://www.w3.org/2000/svg">
  <path
     style="fill:#4d4d4d"
     d="M 13 2 L 2 6 L 7 14 L 14 14 L 11 8 L 13 2 z M 11.40625 3.625 L 10.0625 7.6875 L 9.90625 8.0625 L 10.09375 8.4375 L 12.375 13 L 7.5625 13 L 3.5 6.53125 L 11.40625 3.625 z " />
</svg>
